X:2
T:Major [3], The
M:6/8
L:1/8
R:Jig
S:O'Farrell - Pocket Companion (c. 1805)
Z:AK/Fiddler's Companion
K:A
d | c2A AcA | AcA Bcd | c2A Ace | dBG Bcd :|
|: cde ef=g | faf g2e | c2e efg | dBG Bcd |
cde efg | faf g2e | a/b/af g2e | dBG Bcd :|
|: cBA a3 | ecA Bcd | cBA g2e | dBG Bcd :|
|: ecA AcA | AcA Bcd | ecA Ace | dBG Bcd :|]

